; generated by PrusaSlicer 2.4.1+win64 on 2022-04-03 at 19:07:18 UTC


;
;

;
;
; 

; external perimeters extrusion width = 0.45mm
; perimeters extrusion width = 0.45mm
; infill extrusion width = 0.45mm
; solid infill extrusion width = 0.45mm
; top infill extrusion width = 0.40mm
; first layer extrusion width = 0.42mm

M73 P0 R222
M201 X2500 Y2500 Z400 E5000 ; sets maximum accelerations, mm/sec^2
M203 X180 Y180 Z12 E80 ; sets maximum feedrates, mm / sec
M204 P1250 R1250 T2500 ; sets acceleration (P, T) and retract acceleration (R), mm/sec^2
M205 X8.00 Y8.00 Z2.00 E10.00 ; sets the jerk limits, mm/sec
M205 S0 T0 ; sets the minimum extruding and travel feed rate, mm/sec
M107
;TYPE:Custom
M862.3 P "MINI" ; printer model check
G90 ; use absolute coordinates
M83 ; extruder relative mode
M104 S170 ; set extruder temp for bed leveling
M140 S60 ; set bed temp
M109 R170 ; wait for bed leveling temp
M190 S60 ; wait for bed temp
M204 T1250 ; set travel acceleration
G28 ; home all without mesh bed level
G29 ; mesh bed leveling 
M204 T2500 ; restore travel acceleration
M104 S215 ; set extruder temp
G92 E0
G1 Y-2 X179 F2400
G1 Z3 F720
M109 S215 ; wait for extruder temp

; intro line
G1 X170 F1000
G1 Z0.2 F720
G1 X110 E8 F900
G1 X40 E10 F700
G92 E0

M221 S95 ; set flow
G21 ; set units to millimeters
G90 ; use absolute coordinates
M83 ; use relative distances for extrusion
M900 K0.2 ; Filament gcode LA 1.5
; ; Filament gcode LA 1.0
M107
;LAYER_CHANGE
;Z:0.2
;HEIGHT:0.2
;BEFORE_LAYER_CHANGE
G92 E0.0
;0.2


G1 E-3.2 F4200
G1 Z.2 F720
;AFTER_LAYER_CHANGE
;0.2
G1 Z.4
G1 X10.515 Y10.193 F9000
G1 Z.2 F720
G1 E3.2 F2400
M204 P800
;TYPE:Skirt/Brim
;WIDTH:0.42
M73 P0 R221
G1 F1200
G1 X11.56 Y9.317 E.04278
G1 X12.5 Y9.123 E.03008
G1 X167.5 Y9.123 E4.85992
G1 X168.807 Y9.515 E.04278
G1 X169.683 Y10.56 E.04278
G1 X169.877 Y11.5 E.03008
G1 X169.877 Y168.5 E4.92262
G1 X169.485 Y169.807 E.04278
G1 X168.44 Y170.683 E.04278
G1 X167.5 Y170.877 E.03008
G1 X12.5 Y170.877 E4.85992
G1 X11.193 Y170.485 E.04278
G1 X10.317 Y169.44 E.04278
G1 X10.123 Y168.5 E.03008
G1 X10.123 Y11.5 E4.92262
G1 X10.497 Y10.25 E.0409
M204 P1000
; printing object Wakoma Nimble - Bottom v2.1-3mm.stl id:0 copy 0
G1 E-2.24 F4200
;WIPE_START
G1 F7200
G1 X11.56 Y9.317 E-.78411
G1 X11.786 Y9.27 E-.12789
;WIPE_END
G1 E-.048 F4200
G1 Z.4 F720
G1 X100.338 Y94.713 F9000
G1 Z.2 F720
G1 E3.2 F2400
M204 P800
;TYPE:Perimeter
G1 F1200
G1 X151.287 Y94.713 E1.59747
G1 X151.287 Y145.662 E1.59747
G1 X150.315 Y146.064 E.03298
G1 X99.936 Y95.685 E2.23392
G1 X100.315 Y94.768 E.0311
M204 P1000
G1 X100.59 Y95.09 F9000
M204 P800
;TYPE:External perimeter
G1 F1200
G1 X150.91 Y95.09 E1.57775
G1 X150.91 Y145.41 E1.57775
G1 X150.404 Y145.62 E.01718
G1 X100.38 Y95.596 E2.21812
G1 X100.567 Y95.145 E.0153
M204 P1000
G1 X100.487 Y94.703 F9000
G1 E-2.24 F4200
;WIPE_START
G1 F7200
G1 X102.213 Y95.144 E-.912
;WIPE_END
G1 E-.048 F4200
G1 Z.4 F720
G1 X94.685 Y100.936 F9000
G1 Z.2 F720
G1 E3.2 F2400
M204 P800
;TYPE:Perimeter
G1 F1200
G1 X145.064 Y151.315 E2.23392
G1 X144.662 Y152.287 E.03298
G1 X93.713 Y152.287 E1.59747
G1 X93.713 Y101.338 E1.59747
G1 X94.629 Y100.958 E.0311
M204 P1000
G1 X94.596 Y101.38 F9000
M204 P800
;TYPE:External perimeter
G1 F1200
G1 X144.62 Y151.404 E2.21812
G1 X144.41 Y151.91 E.01718
M73 P0 R220
G1 X94.09 Y151.91 E1.57775
G1 X94.09 Y101.59 E1.57775
G1 X94.541 Y101.403 E.0153
M204 P1000
G1 X94.797 Y101.035 F9000
G1 E-2.24 F4200
;WIPE_START
G1 F7200
G1 X95.705 Y102.566 E-.912
;WIPE_END
G1 E-.048 F4200
G1 Z.4 F720
G1 X86.287 Y101.338 F9000
G1 Z.2 F720
G1 E3.2 F2400
M204 P800
;TYPE:Perimeter
G1 F1200
G1 X86.287 Y152.287 E1.59747
G1 X35.338 Y152.287 E1.59747
G1 X34.936 Y151.315 E.03298
G1 X85.315 Y100.936 E2.23392
G1 X86.232 Y101.315 E.0311
M204 P1000
G1 X85.91 Y101.59 F9000
M204 P800
;TYPE:External perimeter
G1 F1200
G1 X85.91 Y151.91 E1.57775
G1 X35.59 Y151.91 E1.57775
G1 X35.38 Y151.404 E.01718
G1 X85.404 Y101.38 E2.21812
G1 X85.855 Y101.567 E.0153
M204 P1000
G1 X86.297 Y101.487 F9000
G1 E-2.24 F4200
;WIPE_START
G1 F7200
G1 X85.856 Y103.213 E-.912
;WIPE_END
G1 E-.048 F4200
G1 Z.4 F720
G1 X80.064 Y95.685 F9000
G1 Z.2 F720
G1 E3.2 F2400
M204 P800
;TYPE:Perimeter
G1 F1200
G1 X29.685 Y146.064 E2.23392
G1 X28.713 Y145.662 E.03298
G1 X28.713 Y94.713 E1.59747
G1 X79.662 Y94.713 E1.59747
G1 X80.042 Y95.629 E.0311
M204 P1000
G1 X79.62 Y95.596 F9000
M204 P800
;TYPE:External perimeter
G1 F1200
G1 X29.596 Y145.62 E2.21812
G1 X29.09 Y145.41 E.01718
G1 X29.09 Y95.09 E1.57775
G1 X79.41 Y95.09 E1.57775
G1 X79.597 Y95.541 E.0153
M204 P1000
G1 X79.965 Y95.797 F9000
G1 E-2.24 F4200
;WIPE_START
G1 F7200
G1 X78.434 Y96.705 E-.912
;WIPE_END
G1 E-.048 F4200
G1 Z.4 F720
G1 X79.662 Y87.287 F9000
G1 Z.2 F720
G1 E3.2 F2400
M204 P800
;TYPE:Perimeter
G1 F1200
G1 X28.713 Y87.287 E1.59747
G1 X28.713 Y36.338 E1.59747
G1 X29.685 Y35.936 E.03298
G1 X80.064 Y86.315 E2.23392
G1 X79.685 Y87.232 E.0311
M204 P1000
G1 X79.41 Y86.91 F9000
M204 P800
;TYPE:External perimeter
G1 F1200
G1 X29.09 Y86.91 E1.57775
G1 X29.09 Y36.59 E1.57775
G1 X29.596 Y36.38 E.01718
M73 P1 R220
G1 X79.62 Y86.404 E2.21812
G1 X79.433 Y86.855 E.0153
M204 P1000
M73 P1 R219
G1 X79.513 Y87.297 F9000
G1 E-2.24 F4200
;WIPE_START
G1 F7200
G1 X77.787 Y86.856 E-.912
;WIPE_END
G1 E-.048 F4200
G1 Z.4 F720
G1 X85.315 Y81.064 F9000
G1 Z.2 F720
G1 E3.2 F2400
M204 P800
;TYPE:Perimeter
G1 F1200
G1 X34.936 Y30.685 E2.23392
G1 X35.338 Y29.713 E.03298
G1 X86.287 Y29.713 E1.59747
G1 X86.287 Y80.662 E1.59747
G1 X85.371 Y81.042 E.0311
M204 P1000
G1 X85.404 Y80.62 F9000
M204 P800
;TYPE:External perimeter
G1 F1200
G1 X35.38 Y30.596 E2.21812
G1 X35.59 Y30.09 E.01718
G1 X85.91 Y30.09 E1.57775
G1 X85.91 Y80.41 E1.57775
G1 X85.459 Y80.597 E.0153
M204 P1000
G1 X85.203 Y80.965 F9000
G1 E-2.24 F4200
;WIPE_START
G1 F7200
G1 X84.295 Y79.434 E-.912
;WIPE_END
G1 E-.048 F4200
G1 Z.4 F720
G1 X23.996 Y24.638 F9000
G1 Z.2 F720
G1 E3.2 F2400
M204 P800
;TYPE:Perimeter
G1 F1200
G1 X23.793 Y24.856 E.00933
G1 X23.406 Y25.18 E.01584
G1 X23.073 Y25.387 E.01229
G1 X22.585 Y25.604 E.01675
G1 X22.219 Y25.708 E.01192
G1 X21.95 Y25.757 E.00856
G1 X21.565 Y25.788 E.01211
G1 X21.18 Y25.772 E.01211
G1 X20.654 Y25.677 E.01675
G1 X20.287 Y25.556 E.01211
G1 X19.937 Y25.393 E.01211
G1 X19.703 Y25.253 E.00856
G1 X19.397 Y25.027 E.01193
G1 X19.015 Y24.653 E.01675
G1 X18.783 Y24.352 E.01193
G1 X18.639 Y24.12 E.00856
G1 X18.471 Y23.779 E.01193
G1 X18.375 Y23.523 E.00856
G1 X18.278 Y23.155 E.01193
G1 X18.235 Y22.886 E.00856
G1 X18.212 Y22.5 E.01211
G1 X18.235 Y22.115 E.01211
G1 X18.278 Y21.845 E.00856
G1 X18.375 Y21.477 E.01193
G1 X18.471 Y21.221 E.00856
G1 X18.639 Y20.88 E.01193
G1 X18.783 Y20.648 E.00856
G1 X19.015 Y20.347 E.01192
G1 X19.207 Y20.144 E.00875
G1 X19.594 Y19.82 E.01583
G1 X19.927 Y19.613 E.01229
G1 X20.415 Y19.396 E.01675
G1 X20.787 Y19.29 E.01211
G1 X21.168 Y19.229 E.01211
G1 X21.44 Y19.213 E.00856
G1 X21.82 Y19.228 E.01192
G1 X22.346 Y19.323 E.01675
G1 X22.713 Y19.444 E.01211
G1 X23.063 Y19.607 E.01211
G1 X23.297 Y19.747 E.00856
G1 X23.603 Y19.973 E.01193
G1 X23.806 Y20.156 E.00856
G1 X24.061 Y20.438 E.01192
G1 X24.223 Y20.657 E.00853
G1 X24.405 Y20.961 E.01112
G1 X24.533 Y21.23 E.00934
G1 X24.66 Y21.591 E.01198
G1 X24.765 Y22.115 E.01675
G1 X24.788 Y22.5 E.01211
G1 X24.765 Y22.885 E.01211
G1 X24.66 Y23.409 E.01675
G1 X24.532 Y23.773 E.01211
G1 X24.361 Y24.12 E.01211
G1 X24.217 Y24.352 E.00856
G1 X24.033 Y24.591 E.00946
M204 P1000
G1 X23.697 Y24.408 F9000
M204 P800
;TYPE:External perimeter
G1 F1200
G1 X23.534 Y24.581 E.00745
G1 X23.184 Y24.874 E.01431
G1 X22.89 Y25.057 E.01088
G1 X22.463 Y25.246 E.01463
G1 X22.134 Y25.34 E.01075
G1 X21.902 Y25.382 E.00739
G1 X21.558 Y25.41 E.01081
G1 X21.213 Y25.396 E.01081
G1 X20.754 Y25.313 E.01463
G1 X20.426 Y25.205 E.01082
G1 X20.114 Y25.059 E.01081
G1 X19.912 Y24.939 E.00739
G1 X19.636 Y24.735 E.01075
G1 X19.303 Y24.408 E.01463
G1 X19.093 Y24.137 E.01075
G1 X18.969 Y23.937 E.00739
G1 X18.818 Y23.629 E.01075
G1 X18.735 Y23.408 E.00739
G1 X18.647 Y23.077 E.01075
G1 X18.61 Y22.844 E.00739
G1 X18.59 Y22.5 E.01081
G1 X18.61 Y22.156 E.01081
G1 X18.647 Y21.923 E.00739
G1 X18.735 Y21.592 E.01075
G1 X18.818 Y21.371 E.00739
G1 X18.969 Y21.063 E.01075
G1 X19.093 Y20.863 E.00739
G1 X19.303 Y20.592 E.01075
G1 X19.466 Y20.419 E.00745
G1 X19.816 Y20.126 E.0143
G1 X20.11 Y19.943 E.01088
G1 X20.537 Y19.754 E.01463
G1 X20.869 Y19.659 E.01081
G1 X21.209 Y19.604 E.01081
G1 X21.444 Y19.59 E.00739
G1 X21.787 Y19.604 E.01075
G1 X22.246 Y19.687 E.01463
G1 X22.574 Y19.795 E.01081
G1 X22.886 Y19.941 E.01081
G1 X23.088 Y20.061 E.00739
G1 X23.364 Y20.265 E.01075
G1 X23.539 Y20.423 E.00739
G1 X23.769 Y20.677 E.01075
G1 X23.909 Y20.867 E.00738
G1 X24.072 Y21.14 E.00998
G1 X24.184 Y21.374 E.00814
G1 X24.298 Y21.698 E.01077
G1 X24.39 Y22.156 E.01463
G1 X24.41 Y22.5 E.01081
G1 X24.39 Y22.844 E.01081
G1 X24.298 Y23.302 E.01463
G1 X24.183 Y23.627 E.01081
G1 X24.031 Y23.937 E.01081
G1 X23.907 Y24.137 E.00739
G1 X23.734 Y24.361 E.00887
M204 P1000
G1 X23.776 Y24.632 F9000
G1 E-2.24 F4200
;WIPE_START
G1 F7200
G1 X23.534 Y24.581 E-.16483
G1 X23.184 Y24.874 E-.25283
G1 X22.89 Y25.057 E-.19231
G1 X22.463 Y25.246 E-.25858
G1 X22.388 Y25.268 E-.04345
;WIPE_END
G1 E-.048 F4200
G1 Z.4 F720
G1 X93.713 Y29.713 F9000
G1 Z.2 F720
G1 E3.2 F2400
M204 P800
;TYPE:Perimeter
G1 F1200
G1 X144.662 Y29.713 E1.59747
G1 X145.064 Y30.685 E.03298
G1 X94.685 Y81.064 E2.23392
G1 X93.713 Y80.662 E.03298
G1 X93.713 Y29.773 E1.59559
M204 P1000
G1 X94.09 Y30.09 F9000
M204 P800
;TYPE:External perimeter
G1 F1200
G1 X144.41 Y30.09 E1.57775
G1 X144.62 Y30.596 E.01718
G1 X94.596 Y80.62 E2.21812
G1 X94.09 Y80.41 E.01718
G1 X94.09 Y30.15 E1.57587
M204 P1000
G1 X94.089 Y29.69 F9000
G1 E-2.24 F4200
;WIPE_START
G1 F7200
G1 X95.736 Y30.148 E-.912
;WIPE_END
G1 E-.048 F4200
G1 Z.4 F720
G1 X150.315 Y35.936 F9000
G1 Z.2 F720
G1 E3.2 F2400
M204 P800
;TYPE:Perimeter
G1 F1200
G1 X151.287 Y36.338 E.03298
G1 X151.287 Y87.287 E1.59747
G1 X100.338 Y87.287 E1.59747
G1 X99.936 Y86.315 E.03298
G1 X150.273 Y35.978 E2.23204
M204 P1000
G1 X150.404 Y36.38 F9000
M204 P800
;TYPE:External perimeter
G1 F1200
G1 X150.91 Y36.59 E.01718
G1 X150.91 Y86.91 E1.57775
G1 X100.59 Y86.91 E1.57775
G1 X100.38 Y86.404 E.01718
G1 X150.361 Y36.423 E2.21624
M204 P1000
G1 X150.603 Y36.033 F9000
G1 E-2.24 F4200
;WIPE_START
G1 F7200
G1 X150.91 Y36.59 E-.31784
G1 X150.91 Y37.662 E-.59416
;WIPE_END
G1 E-.048 F4200
G1 Z.4 F720
G1 X156.954 Y25.401 F9000
G1 Z.2 F720
M73 P1 R218
G1 E3.2 F2400
M204 P800
;TYPE:Perimeter
G1 F1200
G1 X156.703 Y25.253 E.00915
G1 X156.397 Y25.027 E.01193
G1 X156.015 Y24.653 E.01675
G1 X155.783 Y24.352 E.01192
G1 X155.639 Y24.12 E.00856
G1 X155.468 Y23.773 E.01211
G1 X155.34 Y23.409 E.01211
G1 X155.235 Y22.885 E.01675
G1 X155.212 Y22.5 E.01211
G1 X155.235 Y22.115 E.01211
G1 X155.34 Y21.591 E.01675
G1 X155.466 Y21.232 E.01192
G1 X155.582 Y20.985 E.00856
G1 X155.777 Y20.658 E.01193
G1 X155.939 Y20.438 E.00856
G1 X156.202 Y20.148 E.01229
G1 X156.594 Y19.82 E.01602
G1 X156.927 Y19.613 E.01229
G1 X157.415 Y19.396 E.01675
G1 X157.787 Y19.29 E.01211
G1 X158.168 Y19.229 E.01211
G1 X158.44 Y19.213 E.00856
G1 X158.82 Y19.228 E.01192
G1 X159.346 Y19.323 E.01675
G1 X159.713 Y19.444 E.01211
G1 X160.063 Y19.607 E.01211
G1 X160.297 Y19.747 E.00856
G1 X160.603 Y19.973 E.01193
G1 X160.985 Y20.347 E.01675
G1 X161.217 Y20.648 E.01192
G1 X161.361 Y20.88 E.00856
G1 X161.529 Y21.221 E.01193
G1 X161.625 Y21.477 E.00856
G1 X161.722 Y21.845 E.01192
G1 X161.765 Y22.114 E.00856
G1 X161.788 Y22.5 E.01211
G1 X161.765 Y22.886 E.01211
G1 X161.722 Y23.155 E.00856
G1 X161.625 Y23.523 E.01193
G1 X161.529 Y23.779 E.00856
G1 X161.361 Y24.12 E.01193
G1 X161.217 Y24.352 E.00856
G1 X160.985 Y24.653 E.01192
G1 X160.793 Y24.856 E.00875
G1 X160.406 Y25.18 E.01583
G1 X160.073 Y25.387 E.01229
G1 X159.585 Y25.604 E.01675
G1 X159.219 Y25.708 E.01192
G1 X158.95 Y25.757 E.00856
G1 X158.565 Y25.788 E.01211
G1 X158.18 Y25.772 E.01211
G1 X157.654 Y25.677 E.01675
G1 X157.287 Y25.556 E.01211
G1 X157.009 Y25.426 E.00964
M204 P1000
G1 X157.114 Y25.059 F9000
M204 P800
;TYPE:External perimeter
G1 F1200
G1 X156.912 Y24.939 E.00739
G1 X156.636 Y24.735 E.01075
G1 X156.303 Y24.408 E.01463
G1 X156.093 Y24.137 E.01075
G1 X155.969 Y23.937 E.00739
G1 X155.817 Y23.627 E.01081
G1 X155.702 Y23.302 E.01081
G1 X155.61 Y22.844 E.01463
G1 X155.59 Y22.5 E.01081
G1 X155.61 Y22.156 E.01081
G1 X155.702 Y21.698 E.01463
G1 X155.816 Y21.375 E.01075
G1 X155.916 Y21.161 E.00739
G1 X156.091 Y20.867 E.01075
G1 X156.231 Y20.677 E.00739
G1 X156.464 Y20.42 E.01088
G1 X156.816 Y20.126 E.01437
G1 X157.11 Y19.943 E.01088
G1 X157.537 Y19.754 E.01463
G1 X157.869 Y19.659 E.01081
G1 X158.209 Y19.604 E.01081
G1 X158.444 Y19.59 E.00739
G1 X158.787 Y19.604 E.01075
G1 X159.246 Y19.687 E.01463
G1 X159.574 Y19.795 E.01081
G1 X159.886 Y19.941 E.01081
G1 X160.088 Y20.061 E.00739
G1 X160.364 Y20.265 E.01075
G1 X160.697 Y20.592 E.01463
G1 X160.907 Y20.863 E.01075
G1 X161.031 Y21.063 E.00739
G1 X161.182 Y21.371 E.01075
G1 X161.265 Y21.592 E.00739
G1 X161.353 Y21.923 E.01075
G1 X161.39 Y22.156 E.00739
G1 X161.41 Y22.5 E.01081
G1 X161.39 Y22.844 E.01081
G1 X161.353 Y23.077 E.00739
G1 X161.265 Y23.408 E.01075
G1 X161.182 Y23.629 E.00739
G1 X161.031 Y23.937 E.01075
G1 X160.907 Y24.137 E.00739
G1 X160.697 Y24.408 E.01075
G1 X160.534 Y24.581 E.00745
G1 X160.184 Y24.874 E.0143
G1 X159.89 Y25.057 E.01088
G1 X159.463 Y25.246 E.01463
G1 X159.134 Y25.34 E.01075
G1 X158.902 Y25.382 E.00739
G1 X158.558 Y25.41 E.01081
G1 X158.213 Y25.396 E.01081
G1 X157.754 Y25.313 E.01463
G1 X157.426 Y25.205 E.01082
G1 X157.168 Y25.084 E.00893
M204 P1000
G1 X156.915 Y25.185 F9000
G1 E-2.24 F4200
;WIPE_START
G1 F7200
G1 X156.912 Y24.939 E-.16368
G1 X156.636 Y24.735 E-.18998
G1 X156.303 Y24.408 E-.25859
G1 X156.093 Y24.137 E-.18998
G1 X155.989 Y23.968 E-.10977
;WIPE_END
G1 E-.048 F4200
G1 Z.4 F720
G1 X158.457 Y156.213 F9000
G1 Z.2 F720
G1 E3.2 F2400
M204 P800
;TYPE:Perimeter
G1 F1200
G1 X158.82 Y156.228 E.0114
G1 X159.085 Y156.265 E.00838
G1 X159.346 Y156.323 E.00838
G1 X159.713 Y156.444 E.01211
G1 X160.063 Y156.607 E.01211
G1 X160.297 Y156.747 E.00856
G1 X160.603 Y156.973 E.01193
G1 X160.801 Y157.152 E.00838
G1 X160.985 Y157.347 E.00838
G1 X161.217 Y157.648 E.01192
G1 X161.361 Y157.88 E.00856
G1 X161.529 Y158.221 E.01193
G1 X161.625 Y158.477 E.00856
G1 X161.722 Y158.845 E.01192
G1 X161.765 Y159.114 E.00856
G1 X161.788 Y159.5 E.01211
G1 X161.765 Y159.885 E.01211
G1 X161.722 Y160.155 E.00856
G1 X161.625 Y160.523 E.01193
G1 X161.529 Y160.779 E.00856
G1 X161.361 Y161.12 E.01193
G1 X161.217 Y161.352 E.00856
G1 X160.985 Y161.653 E.01192
G1 X160.793 Y161.856 E.00875
G1 X160.406 Y162.18 E.01583
G1 X160.073 Y162.387 E.01229
G1 X159.833 Y162.505 E.00838
G1 X159.585 Y162.604 E.00838
G1 X159.213 Y162.71 E.01211
G1 X158.832 Y162.771 E.01211
G1 X158.56 Y162.787 E.00856
G1 X158.18 Y162.772 E.01192
G1 X157.915 Y162.735 E.00838
G1 X157.654 Y162.677 E.00838
G1 X157.287 Y162.556 E.01211
G1 X156.937 Y162.393 E.01211
G1 X156.703 Y162.253 E.00856
G1 X156.397 Y162.027 E.01193
G1 X156.194 Y161.844 E.00856
G1 X155.939 Y161.562 E.01192
G1 X155.777 Y161.343 E.00853
G1 X155.595 Y161.039 E.01112
G1 X155.467 Y160.77 E.00934
G1 X155.34 Y160.409 E.01198
G1 X155.277 Y160.149 E.00838
G1 X155.235 Y159.885 E.00838
G1 X155.212 Y159.5 E.01211
G1 X155.235 Y159.115 E.01211
G1 X155.277 Y158.851 E.00838
G1 X155.34 Y158.591 E.00838
G1 X155.466 Y158.232 E.01192
G1 X155.582 Y157.985 E.00856
G1 X155.777 Y157.658 E.01193
G1 X155.939 Y157.438 E.00856
G1 X156.202 Y157.148 E.01229
G1 X156.594 Y156.82 E.01602
G1 X156.927 Y156.613 E.01229
G1 X157.167 Y156.495 E.00838
G1 X157.415 Y156.396 E.00838
G1 X157.781 Y156.292 E.01192
G1 X158.05 Y156.243 E.00856
G1 X158.397 Y156.215 E.01093
M204 P1000
G1 X158.442 Y156.59 F9000
M204 P800
;TYPE:External perimeter
G1 F1200
G1 X158.787 Y156.604 E.01081
G1 X159.018 Y156.636 E.00732
G1 X159.246 Y156.687 E.00732
G1 X159.574 Y156.795 E.01081
G1 X159.886 Y156.941 E.01081
G1 X160.088 Y157.061 E.00739
G1 X160.364 Y157.265 E.01075
G1 X160.537 Y157.422 E.00732
G1 X160.697 Y157.592 E.00732
